backend/scripts/moody.cube
LUT_3D_SIZE 5
DOMAIN_MIN 0.0 0.0 0.0
DOMAIN_MAX 1.0 1.0 1.0
0.000000 0.000000 0.000000
0.217080 0.000000 0.000000
0.468498 0.000000 0.000000
0.709037 0.015257 0.000000
0.933082 0.029810 0.000000
0.000000 0.206460 0.000000
0.180642 0.201968 0.000000
0.453385 0.240127 0.000000
0.695570 0.256191 0.000000
0.919615 0.270744 0.000000
0.000000 0.447257 0.000000
0.144204 0.442765 0.000000
0.395621 0.438273 0.000000
0.682103 0.497126 0.000000
0.906148 0.511678 0.000000
0.000000 0.680646 0.000000
0.108343 0.676642 0.000000
0.359719 0.672639 0.000000
0.605154 0.668636 0.000000
0.892681 0.747160 0.000000
0.000000 0.895227 0.000000
0.074089 0.891224 0.000000
0.325466 0.887221 0.000000
0.572546 0.883217 0.000000
0.796550 0.879214 0.000000
0.000000 0.000000 0.220047
0.215555 0.000000 0.194229
0.466972 0.000000 0.168411
0.707677 0.000000 0.143485
0.931723 0.000000 0.119948
0.000000 0.183609 0.204935
0.200442 0.200442 0.200442
0.451860 0.217276 0.195950
0.694210 0.233354 0.191458
0.918256 0.247906 0.186966
0.000000 0.445732 0.232474
0.185330 0.441240 0.206656
0.415422 0.436747 0.180838
0.680743 0.474288 0.176346
0.904789 0.488841 0.171853
0.000000 0.679286 0.238084
0.170218 0.675283 0.212307
0.379506 0.671280 0.165726
0.625106 0.667277 0.161233
0.891322 0.724488 0.156741
0.000000 0.893868 0.242113
0.155106 0.889864 0.216335
0.345252 0.885861 0.150613
0.592498 0.881858 0.146121
0.816503 0.877855 0.141629
0.005263 0.000000 0.474431
0.256681 0.000000 0.469939
0.465446 0.000000 0.422795
0.706318 0.000000 0.397855
0.930363 0.000000 0.374318
0.000000 0.160757 0.459319
0.220243 0.198917 0.454826
0.450334 0.194424 0.429008
0.692851 0.189932 0.403932
0.916896 0.185440 0.380395
0.000000 0.401555 0.444206
0.183804 0.418388 0.439714
0.435222 0.435222 0.435222
0.679384 0.451451 0.430729
0.903429 0.466003 0.426237
0.000000 0.677927 0.492482
0.168692 0.673923 0.466704
0.420109 0.669920 0.440927
0.645059 0.665917 0.415617
0.889962 0.701817 0.411125
0.000000 0.892508 0.496511
0.153580 0.888505 0.470733
0.404997 0.884502 0.444956
0.612451 0.880498 0.400505
0.836455 0.876495 0.396013
0.024076 0.000000 0.716968
0.275534 0.000000 0.712965
0.526992 0.000000 0.708962
0.704958 0.000000 0.641846
0.929004 0.000000 0.618798
0.000000 0.138756 0.703501
0.239233 0.197391 0.699498
0.490691 0.192899 0.695495
0.691491 0.188407 0.649568
0.915537 0.183914 0.626520
0.000000 0.379416 0.690034
0.182279 0.396209 0.686031
0.454390 0.433696 0.682028
0.678024 0.429204 0.657289
0.902070 0.424712 0.634241
0.000000 0.613166 0.676567
0.167167 0.630447 0.672564
0.418584 0.647729 0.668561
0.664557 0.664557 0.664557
0.888603 0.679558 0.660554
0.000000 0.891149 0.745643
0.152054 0.887145 0.720354
0.403472 0.883142 0.695066
0.651091 0.879139 0.670095
0.856132 0.875136 0.647087
0.041569 0.000000 0.943657
0.293027 0.000000 0.939654
0.544485 0.000000 0.935651
0.785729 0.000000 0.931647
0.927644 0.000000 0.845473
0.000000 0.118213 0.930190
0.256726 0.195866 0.926187
0.508184 0.191373 0.922184
0.751074 0.186881 0.918180
0.914177 0.182389 0.853195
0.000000 0.358873 0.916723
0.180753 0.375666 0.912720
0.471883 0.432171 0.908717
0.716418 0.427678 0.904713
0.900710 0.423186 0.860917
0.000000 0.592788 0.903256
0.165641 0.610070 0.899253
0.417058 0.627352 0.895250
0.682202 0.663198 0.891246
0.887243 0.659195 0.868239
0.000000 0.807233 0.889789
0.150529 0.824514 0.885786
0.401946 0.841796 0.881783
0.649731 0.858775 0.877779
0.873776 0.873776 0.873776
