backend/scripts/moody.cube
LUT_3D_SIZE 33
DOMAIN_MIN 0.0 0.0 0.0
DOMAIN_MAX 1.0 1.0 1.0
0.000000 0.000000 0.000000
0.000000 0.000000 0.000000
0.028517 0.000000 0.000000
0.059944 0.000000 0.000000
0.091372 0.000000 0.000000
0.122799 0.000000 0.000000
0.154226 0.000000 0.000000
0.185653 0.000000 0.000000
0.217080 0.000000 0.000000
0.248507 0.000000 0.000000
0.279935 0.000000 0.000000
0.311362 0.000000 0.000000
0.342789 0.000000 0.000000
0.374216 0.000000 0.000000
0.405643 0.000000 0.000000
0.437070 0.000000 0.000000
0.468498 0.000000 0.000000
0.499925 0.001434 0.000000
0.531352 0.003538 0.000000
0.562779 0.005643 0.000000
0.594206 0.007747 0.000000
0.625020 0.009800 0.000000
0.653026 0.011619 0.000000
0.681031 0.013438 0.000000
0.709037 0.015257 0.000000
0.737043 0.017076 0.000000
0.765048 0.018895 0.000000
0.793054 0.020714 0.000000
0.821060 0.022533 0.000000
0.849065 0.024352 0.000000
0.877071 0.026171 0.000000
0.905077 0.027990 0.000000
0.933082 0.029810 0.000000
0.000000 0.000000 0.000000
0.000000 0.000000 0.000000
0.026628 0.000000 0.000000
0.058055 0.002075 0.000000
0.089483 0.004179 0.000000
0.120910 0.006284 0.000000
0.152337 0.008388 0.000000
0.183764 0.010492 0.000000
0.215191 0.012596 0.000000
0.246618 0.014700 0.000000
0.278046 0.016805 0.000000
0.309473 0.018909 0.000000
0.340900 0.021013 0.000000
0.372327 0.023117 0.000000
0.403754 0.025221 0.000000
0.435181 0.027325 0.000000
0.466608 0.029430 0.000000
0.498036 0.031534 0.000000
0.529463 0.033638 0.000000
0.560890 0.035742 0.000000
0.592317 0.037846 0.000000
0.623337 0.039917 0.000000
0.651342 0.041736 0.000000
0.679348 0.043555 0.000000
0.707354 0.045374 0.000000
0.735359 0.047193 0.000000
0.763365 0.049012 0.000000
0.791371 0.050831 0.000000
0.819376 0.052650 0.000000
0.847382 0.054469 0.000000
0.875388 0.056288 0.000000
0.903393 0.058107 0.000000
0.931399 0.059926 0.000000
0.000000 0.025862 0.000000
0.000000 0.025301 0.000000
0.019408 0.024739 0.000000
0.056166 0.032175 0.000000
0.087594 0.034279 0.000000
0.119021 0.036383 0.000000
0.150448 0.038487 0.000000
0.181875 0.040592 0.000000
0.213302 0.042696 0.000000
0.244729 0.044800 0.000000
0.276156 0.046904 0.000000
0.307584 0.049008 0.000000
0.339011 0.051113 0.000000
0.370438 0.053217 0.000000
0.401865 0.055321 0.000000
0.433292 0.057425 0.000000
0.464719 0.059529 0.000000
0.496147 0.061634 0.000000
0.527574 0.063738 0.000000
0.559001 0.065842 0.000000
0.590428 0.067946 0.000000
0.621653 0.070033 0.000000
0.649659 0.071853 0.000000
0.677665 0.073672 0.000000
0.705670 0.075491 0.000000
0.733676 0.077310 0.000000
0.761682 0.079129 0.000000
0.789687 0.080948 0.000000
0.817693 0.082767 0.000000
0.845699 0.084586 0.000000
0.873704 0.086405 0.000000
0.901710 0.088224 0.000000
0.929715 0.090043 0.000000
0.000000 0.055962 0.000000
0.000000 0.055400 0.000000
0.014853 0.054839 0.000000
0.046280 0.054277 0.000000
0.085704 0.064379 0.000000
0.117132 0.066483 0.000000
0.148559 0.068587 0.000000
0.179986 0.070691 0.000000
0.211413 0.072795 0.000000
0.242840 0.074900 0.000000
0.274267 0.077004 0.000000
0.305695 0.079108 0.000000
0.337122 0.081212 0.000000
0.368549 0.083316 0.000000
0.399976 0.085421 0.000000
0.431403 0.087525 0.000000
0.462830 0.089629 0.000000
0.494258 0.091733 0.000000
0.525685 0.093837 0.000000
0.557112 0.095942 0.000000
0.588539 0.098046 0.000000
0.619966 0.100150 0.000000
0.647976 0.101969 0.000000
0.675981 0.103788 0.000000
0.703987 0.105607 0.000000
0.731993 0.107426 0.000000
0.759998 0.109246 0.000000
0.788004 0.111065 0.000000
0.816009 0.112884 0.000000
0.844015 0.114703 0.000000
0.872021 0.116522 0.000000
0.900026 0.118341 0.000000
0.928032 0.120160 0.000000
0.000000 0.086062 0.000000
0.000000 0.085500 0.000000
0.010298 0.084939 0.000000
0.041725 0.084377 0.000000
0.073153 0.083815 0.000000
0.115243 0.096583 0.000000
0.146670 0.098687 0.000000
0.178097 0.100791 0.000000
0.209524 0.102895 0.000000
0.240951 0.104999 0.000000
0.272378 0.107103 0.000000
0.303806 0.109208 0.000000
0.335233 0.111312 0.000000
0.366660 0.113416 0.000000
0.398087 0.115520 0.000000
0.429514 0.117624 0.000000
0.460941 0.119729 0.000000
0.492369 0.121833 0.000000
0.523796 0.123937 0.000000
0.555223 0.126041 0.000000
0.586650 0.128145 0.000000
0.618077 0.130250 0.000000
0.646292 0.132086 0.000000
0.674298 0.133905 0.000000
0.702303 0.135724 0.000000
0.730309 0.137543 0.000000
0.758315 0.139362 0.000000
0.786320 0.141181 0.000000
0.814326 0.143000 0.000000
0.842332 0.144820 0.000000
0.870337 0.146639 0.000000
0.898343 0.148458 0.000000
0.926349 0.150277 0.000000
0.000000 0.116161 0.000000
0.000000 0.115600 0.000000
0.005743 0.115038 0.000000
0.037171 0.114477 0.000000
0.068598 0.113915 0.000000
0.100025 0.113354 0.000000
0.144781 0.128786 0.000000
0.176208 0.130891 0.000000
0.207635 0.132995 0.000000
0.239062 0.135099 0.000000
0.270489 0.137203 0.000000
0.301917 0.139307 0.000000
0.333344 0.141412 0.000000
0.364771 0.143516 0.000000
0.396198 0.145620 0.000000
0.427625 0.147724 0.000000
0.459052 0.149828 0.000000
0.490480 0.151932 0.000000
0.521907 0.154037 0.000000
0.553334 0.156141 0.000000
0.584761 0.158245 0.000000
0.616188 0.160349 0.000000
0.644609 0.162203 0.000000
0.672614 0.164022 0.000000
0.700620 0.165841 0.000000
0.728626 0.167660 0.000000
0.756631 0.169479 0.000000
0.784637 0.171298 0.000000
0.812643 0.173117 0.000000
0.840648 0.174936 0.000000
0.868654 0.176755 0.000000
0.896660 0.178574 0.000000
0.924665 0.180394 0.000000
0.000000 0.146261 0.000000
0.000000 0.145699 0.000000
0.001189 0.145138 0.000000
0.032616 0.144576 0.000000
0.064043 0.144015 0.000000
0.095470 0.143453 0.000000
0.126897 0.142892 0.000000
0.174319 0.160990 0.000000
0.205746 0.163094 0.000000
0.237173 0.165199 0.000000
0.268600 0.167303 0.000000
0.300028 0.169407 0.000000
0.331455 0.171511 0.000000
0.362882 0.173615 0.000000
0.394309 0.175720 0.000000
0.425736 0.177824 0.000000
0.457163 0.179928 0.000000
0.488590 0.182032 0.000000
0.520018 0.184136 0.000000
0.551445 0.186241 0.000000
0.582872 0.188345 0.000000
0.614299 0.190449 0.000000
0.642925 0.192320 0.000000
0.670931 0.194139 0.000000
0.698937 0.195958 0.000000
0.726942 0.197777 0.000000
0.754948 0.199596 0.000000
0.782954 0.201415 0.000000
0.810959 0.203234 0.000000
0.838965 0.205053 0.000000
0.866971 0.206872 0.000000
0.894976 0.208691 0.000000
0.922982 0.210510 0.000000
0.000000 0.176361 0.000000
0.000000 0.175799 0.000000
0.000000 0.175237 0.000000
0.028061 0.174676 0.000000
0.059488 0.174114 0.000000
0.090915 0.173553 0.000000
0.122343 0.172991 0.000000
0.153770 0.172430 0.000000
0.203857 0.193194 0.000000
0.235284 0.195298 0.000000
0.266711 0.197402 0.000000
0.298138 0.199507 0.000000
0.329566 0.201611 0.000000
0.360993 0.203715 0.000000
0.392420 0.205819 0.000000
0.423847 0.207923 0.000000
0.455274 0.210028 0.000000
0.486701 0.212132 0.000000
0.518129 0.214236 0.000000
0.549556 0.216340 0.000000
0.580983 0.218444 0.000000
0.612410 0.220549 0.000000
0.641242 0.222436 0.000000
0.669248 0.224256 0.000000
0.697253 0.226075 0.000000
0.725259 0.227894 0.000000
0.753265 0.229713 0.000000
0.781270 0.231532 0.000000
0.809276 0.233351 0.000000
0.837282 0.235170 0.000000
0.865287 0.236989 0.000000
0.893293 0.238808 0.000000
0.921299 0.240627 0.000000
0.000000 0.206460 0.000000
0.000000 0.205899 0.000000
0.000000 0.205337 0.000000
0.023506 0.204776 0.000000
0.054934 0.204214 0.000000
0.086361 0.203653 0.000000
0.117788 0.203091 0.000000
0.149215 0.202529 0.000000
0.180642 0.201968 0.000000
0.233395 0.225398 0.000000
0.264822 0.227502 0.000000
0.296249 0.229606 0.000000
0.327677 0.231711 0.000000
0.359104 0.233815 0.000000
0.390531 0.235919 0.000000
0.421958 0.238023 0.000000
0.453385 0.240127 0.000000
0.484812 0.242231 0.000000
0.516240 0.244336 0.000000
0.547667 0.246440 0.000000
0.579094 0.248544 0.000000
0.610521 0.250648 0.000000
0.639559 0.252553 0.000000
0.667564 0.254372 0.000000
0.695570 0.256191 0.000000
0.723576 0.258010 0.000000
0.751581 0.259830 0.000000
0.779587 0.261649 0.000000
0.807593 0.263468 0.000000
0.835598 0.265287 0.000000
0.863604 0.267106 0.000000
0.891610 0.268925 0.000000
0.919615 0.270744 0.000000
0.000000 0.236560 0.000000
0.000000 0.235998 0.000000
0.000000 0.235437 0.000000
0.018952 0.234875 0.000000
0.050379 0.234314 0.000000
0.081806 0.233752 0.000000
0.113233 0.233191 0.000000
0.144660 0.232629 0.000000
0.176087 0.232068 0.000000
0.207515 0.231506 0.000000
0.262933 0.257602 0.000000
0.294360 0.259706 0.000000
0.325788 0.261810 0.000000
0.357215 0.263914 0.000000
0.388642 0.266019 0.000000
0.420069 0.268123 0.000000
0.451496 0.270227 0.000000
0.482923 0.272331 0.000000
0.514351 0.274435 0.000000
0.545778 0.276540 0.000000
0.577205 0.278644 0.000000
0.608632 0.280748 0.000000
0.637875 0.282670 0.000000
0.665881 0.284489 0.000000
0.693887 0.286308 0.000000
0.721892 0.288127 0.000000
0.749898 0.289946 0.000000
0.777904 0.291765 0.000000
0.805909 0.293584 0.000000
0.833915 0.295404 0.000000
0.861921 0.297223 0.000000
0.889926 0.299042 0.000000
0.917932 0.300861 0.000000
0.000000 0.266660 0.000000
0.000000 0.266098 0.000000
0.000000 0.265536 0.000000
0.014397 0.264975 0.000000
0.045824 0.264413 0.000000
0.077251 0.263852 0.000000
0.108678 0.263290 0.000000
0.140105 0.262729 0.000000
0.171533 0.262167 0.000000
0.202960 0.261606 0.000000
0.234387 0.261044 0.000000
0.292471 0.289806 0.000000
0.323899 0.291910 0.000000
0.355326 0.294014 0.000000
0.386753 0.296118 0.000000
0.418180 0.298222 0.000000
0.449607 0.300327 0.000000
0.481034 0.302431 0.000000
0.512461 0.304535 0.000000
0.543889 0.306639 0.000000
0.575316 0.308743 0.000000
0.606743 0.310848 0.000000
0.636192 0.312787 0.000000
0.664198 0.314606 0.000000
0.692203 0.316425 0.000000
0.720209 0.318244 0.000000
0.748215 0.320063 0.000000
0.776220 0.321882 0.000000
0.804226 0.323701 0.000000
0.832232 0.325520 0.000000
0.860237 0.327339 0.000000
0.888243 0.329158 0.000000
0.916248 0.330978 0.000000
0.000000 0.296759 0.000000
0.000000 0.296198 0.000000
0.000000 0.295636 0.000000
0.009842 0.295075 0.000000
0.041269 0.294513 0.000000
0.072696 0.293952 0.000000
0.104124 0.293390 0.000000
0.135551 0.292828 0.000000
0.166978 0.292267 0.000000
0.198405 0.291705 0.000000
0.229832 0.291144 0.000000
0.261259 0.290582 0.000000
0.322009 0.322009 0.000000
0.353437 0.324114 0.000000
0.384864 0.326218 0.000000
0.416291 0.328322 0.000000
0.447718 0.330426 0.000000
0.479145 0.332530 0.000000
0.510572 0.334635 0.000000
0.542000 0.336739 0.000000
0.573427 0.338843 0.000000
0.604854 0.340947 0.000000
0.634509 0.342904 0.000000
0.662514 0.344723 0.000000
0.690520 0.346542 0.000000
0.718526 0.348361 0.000000
0.746531 0.350180 0.000000
0.774537 0.351999 0.000000
0.802542 0.353818 0.000000
0.830548 0.355637 0.000000
0.858554 0.357456 0.000000
0.886559 0.359275 0.000000
0.914565 0.361094 0.000000
0.000000 0.326859 0.000000
0.000000 0.326297 0.000000
0.000000 0.325736 0.000000
0.005287 0.325174 0.000000
0.036714 0.324613 0.000000
0.068142 0.324051 0.000000
0.099569 0.323490 0.000000
0.130996 0.322928 0.000000
0.162423 0.322367 0.000000
0.193850 0.321805 0.000000
0.225277 0.321244 0.000000
0.256705 0.320682 0.000000
0.288132 0.320120 0.000000
0.348882 0.351548 0.000000
0.382975 0.356318 0.000000
0.414402 0.358422 0.000000
0.445829 0.360526 0.000000
0.477256 0.362630 0.000000
0.508683 0.364734 0.000000
0.540111 0.366838 0.000000
0.571538 0.368943 0.000000
0.602965 0.371047 0.000000
0.632825 0.373020 0.000000
0.660831 0.374840 0.000000
0.688836 0.376659 0.000000
0.716842 0.378478 0.000000
0.744848 0.380297 0.000000
0.772853 0.382116 0.000000
0.800859 0.383935 0.000000
0.828865 0.385754 0.000000
0.856870 0.387573 0.000000
0.884876 0.389392 0.000000
0.912882 0.391211 0.000000
0.000000 0.356959 0.000000
0.000000 0.356397 0.000000
0.000000 0.355835 0.000000
0.000733 0.355274 0.000000
0.032160 0.354712 0.000000
0.063587 0.354151 0.000000
0.095014 0.353589 0.000000
0.126441 0.353028 0.000000
0.157868 0.352466 0.000000
0.189296 0.351905 0.000000
0.220723 0.351343 0.000000
0.252150 0.350782 0.000000
0.283577 0.350220 0.000000
0.315004 0.349659 0.000000
0.375754 0.381086 0.000000
0.412513 0.388521 0.000000
0.443940 0.390626 0.000000
0.475367 0.392730 0.000000
0.506794 0.394834 0.000000
0.538222 0.396938 0.000000
0.569649 0.399042 0.000000
0.601076 0.401147 0.000000
0.631142 0.403137 0.000000
0.659147 0.404956 0.000000
0.687153 0.406775 0.000000
0.715159 0.408594 0.000000
0.743164 0.410414 0.000000
0.771170 0.412233 0.000000
0.799176 0.414052 0.000000
0.827181 0.415871 0.000000
0.855187 0.417690 0.000000
0.883193 0.419509 0.000000
0.911198 0.421328 0.000000
0.000000 0.387058 0.000000
0.000000 0.386497 0.000000
0.000000 0.385935 0.000000
0.000000 0.385374 0.000000
0.027605 0.384812 0.000000
0.059032 0.384251 0.000000
0.090459 0.383689 0.000000
0.121886 0.383127 0.000000
0.153314 0.382566 0.000000
0.184741 0.382004 0.000000
0.216168 0.381443 0.000000
0.247595 0.380881 0.000000
0.279022 0.380320 0.000000
0.310449 0.379758 0.000000
0.341877 0.379197 0.000000
0.402627 0.410624 0.000000
0.442051 0.420725 0.000000
0.473478 0.422829 0.000000
0.504905 0.424934 0.000000
0.536333 0.427038 0.000000
0.567760 0.429142 0.000000
0.599187 0.431246 0.000000
0.629458 0.433254 0.000000
0.657464 0.435073 0.000000
0.685470 0.436892 0.000000
0.713475 0.438711 0.000000
0.741481 0.440530 0.000000
0.769487 0.442349 0.000000
0.797492 0.444168 0.000000
0.825498 0.445988 0.000000
0.853504 0.447807 0.000000
0.881509 0.449626 0.000000
0.909515 0.451445 0.000000
0.000000 0.417158 0.000000
0.000000 0.416596 0.000000
0.000000 0.416035 0.000000
0.000000 0.415473 0.000000
0.023050 0.414912 0.000000
0.054477 0.414350 0.000000
0.085905 0.413789 0.000000
0.117332 0.413227 0.000000
0.148759 0.412666 0.000000
0.180186 0.412104 0.000000
0.211613 0.411543 0.000000
0.243040 0.410981 0.000000
0.274467 0.410419 0.000000
0.305895 0.409858 0.000000
0.337322 0.409296 0.000000
0.368749 0.408735 0.000000
0.429499 0.440162 0.000000
0.471589 0.452929 0.000000
0.503016 0.455033 0.000000
0.534443 0.457137 0.000000
0.565871 0.459242 0.000000
0.597298 0.461346 0.000000
0.627775 0.463371 0.000000
0.655781 0.465190 0.000000
0.683786 0.467009 0.000000
0.711792 0.468828 0.000000
0.739798 0.470647 0.000000
0.767803 0.472466 0.000000
0.795809 0.474285 0.000000
0.823815 0.476104 0.000000
0.851820 0.477923 0.000000
0.879826 0.479742 0.000000
0.907832 0.481562 0.000000
0.000000 0.447257 0.000000
0.000000 0.446696 0.000000
0.000000 0.446134 0.000000
0.000000 0.445573 0.000000
0.018495 0.445011 0.000000
0.049923 0.444450 0.000000
0.081350 0.443888 0.000000
0.112777 0.443327 0.000000
0.144204 0.442765 0.000000
0.175631 0.442204 0.000000
0.207058 0.441642 0.000000
0.238486 0.441081 0.000000
0.269913 0.440519 0.000000
0.301340 0.439958 0.000000
0.332767 0.439396 0.000000
0.364194 0.438834 0.000000
0.395621 0.438273 0.000000
0.456371 0.469700 0.000000
0.501127 0.485133 0.000000
0.532554 0.487237 0.000000
0.563982 0.489341 0.000000
0.595409 0.491446 0.000000
0.626092 0.493488 0.000000
0.654097 0.495307 0.000000
0.682103 0.497126 0.000000
0.710109 0.498945 0.000000
0.738114 0.500764 0.000000
0.766120 0.502583 0.000000
0.794126 0.504402 0.000000
0.822131 0.506221 0.000000
0.850137 0.508040 0.000000
0.878143 0.509859 0.000000
0.906148 0.511678 0.000000
0.000000 0.477357 0.000000
0.000000 0.476796 0.000000
0.000000 0.476234 0.000000
0.000000 0.475673 0.000000
0.013941 0.475111 0.000000
0.045368 0.474549 0.000000
0.076795 0.473988 0.000000
0.108222 0.473426 0.000000
0.139649 0.472865 0.000000
0.171076 0.472303 0.000000
0.202504 0.471742 0.000000
0.233931 0.471180 0.000000
0.265358 0.470619 0.000000
0.296785 0.470057 0.000000
0.328212 0.469496 0.000000
0.359639 0.468934 0.000000
0.391067 0.468373 0.000000
0.422494 0.467811 0.000000
0.483244 0.499238 0.000000
0.530665 0.517337 0.000000
0.562093 0.519441 0.000000
0.593520 0.521545 0.000000
0.624408 0.523604 0.000000
0.652414 0.525424 0.000000
0.680420 0.527243 0.000000
0.708425 0.529062 0.000000
0.736431 0.530881 0.000000
0.764437 0.532700 0.000000
0.792442 0.534519 0.000000
0.820448 0.536338 0.000000
0.848454 0.538157 0.000000
0.876459 0.539976 0.000000
0.904465 0.541795 0.000000
0.000000 0.507457 0.000000
0.000000 0.506895 0.000000
0.000000 0.506334 0.000000
0.000000 0.505772 0.000000
0.009386 0.505211 0.000000
0.040813 0.504649 0.000000
0.072240 0.504088 0.000000
0.103667 0.503526 0.000000
0.135095 0.502965 0.000000
0.166522 0.502403 0.000000
0.197949 0.501841 0.000000
0.229376 0.501280 0.000000
0.260803 0.500718 0.000000
0.292230 0.500157 0.000000
0.323658 0.499595 0.000000
0.355085 0.499034 0.000000
0.386512 0.498472 0.000000
0.417939 0.497911 0.000000
0.449366 0.497349 0.000000
0.510116 0.528776 0.000000
0.560204 0.549541 0.000000
0.591631 0.551645 0.000000
0.622725 0.553721 0.000000
0.650731 0.555540 0.000000
0.678736 0.557359 0.000000
0.706742 0.559178 0.000000
0.734748 0.560998 0.000000
0.762753 0.562817 0.000000
0.790759 0.564636 0.000000
0.818765 0.566455 0.000000
0.846770 0.568274 0.000000
0.874776 0.570093 0.000000
0.902782 0.571912 0.000000
0.000000 0.537556 0.000000
0.000000 0.536995 0.000000
0.000000 0.536433 0.000000
0.000000 0.535872 0.000000
0.004831 0.535310 0.000000
0.036258 0.534749 0.000000
0.067685 0.534187 0.000000
0.099113 0.533626 0.000000
0.130540 0.533064 0.000000
0.161967 0.532503 0.000000
0.193394 0.531941 0.000000
0.224821 0.531380 0.000000
0.256248 0.530818 0.000000
0.287676 0.530257 0.000000
0.319103 0.529695 0.000000
0.350530 0.529133 0.000000
0.381957 0.528572 0.000000
0.413384 0.528010 0.000000
0.444811 0.527449 0.000000
0.476239 0.526887 0.000000
0.536989 0.558314 0.000000
0.589742 0.581744 0.000000
0.621042 0.583838 0.000000
0.649047 0.585657 0.000000
0.677053 0.587476 0.000000
0.705059 0.589295 0.000000
0.733064 0.591114 0.000000
0.761070 0.592933 0.000000
0.789076 0.594752 0.000000
0.817081 0.596572 0.000000
0.845087 0.598391 0.000000
0.873092 0.600210 0.000000
0.901098 0.602029 0.000000
0.000000 0.567656 0.000000
0.000000 0.567095 0.000000
0.000000 0.566533 0.000000
0.000000 0.565972 0.000000
0.000276 0.565410 0.000000
0.031704 0.564848 0.000000
0.063131 0.564287 0.000000
0.094558 0.563725 0.000000
0.125985 0.563164 0.000000
0.157412 0.562602 0.000000
0.188839 0.562041 0.000000
0.220267 0.561479 0.000000
0.251694 0.560918 0.000000
0.283121 0.560356 0.000000
0.314548 0.559795 0.000000
0.345975 0.559233 0.000000
0.377402 0.558672 0.000000
0.408829 0.558110 0.000000
0.440257 0.557549 0.000000
0.471684 0.556987 0.000000
0.503111 0.556425 0.000000
0.563861 0.587853 0.000000
0.619280 0.613948 0.000000
0.647364 0.615774 0.000000
0.675370 0.617593 0.000000
0.703375 0.619412 0.000000
0.731381 0.621231 0.000000
0.759386 0.623050 0.000000
0.787392 0.624869 0.000000
0.815398 0.626688 0.000000
0.843403 0.628507 0.000000
0.871409 0.630326 0.000000
0.899415 0.632146 0.000000
0.000000 0.597756 0.000000
0.000000 0.597194 0.000000
0.000000 0.596633 0.000000
0.000000 0.596071 0.000000
0.000000 0.595510 0.000000
0.027149 0.594948 0.000000
0.058576 0.594387 0.000000
0.090003 0.593825 0.000000
0.121430 0.593264 0.000000
0.152857 0.592702 0.000000
0.184285 0.592140 0.000000
0.215712 0.591579 0.000000
0.247139 0.591017 0.000000
0.278566 0.590456 0.000000
0.309993 0.589894 0.000000
0.341420 0.589333 0.000000
0.372848 0.588771 0.000000
0.404275 0.588210 0.000000
0.435702 0.587648 0.000000
0.467129 0.587087 0.000000
0.498556 0.586525 0.000000
0.529983 0.585964 0.000000
0.590734 0.617391 0.000000
0.645470 0.645680 0.000000
0.673686 0.647710 0.000000
0.701692 0.649529 0.000000
0.729697 0.651348 0.000000
0.757703 0.653167 0.000000
0.785709 0.654986 0.000000
0.813714 0.656805 0.000000
0.841720 0.658624 0.000000
0.869726 0.660443 0.000000
0.897731 0.662262 0.000000
0.000000 0.627000 0.000000
0.000000 0.626500 0.000000
0.000000 0.625999 0.000000
0.000000 0.625499 0.000000
0.000000 0.624999 0.000000
0.022640 0.624498 0.000000
0.054062 0.623998 0.000000
0.085484 0.623497 0.000000
0.116906 0.622997 0.000000
0.148328 0.622497 0.000000
0.179750 0.621996 0.000000
0.211172 0.621496 0.000000
0.242594 0.620995 0.000000
0.274016 0.620495 0.000000
0.305438 0.619994 0.000000
0.336866 0.619432 0.000000
0.368293 0.618871 0.000000
0.399720 0.618309 0.000000
0.431147 0.617748 0.000000
0.462574 0.617186 0.000000
0.494001 0.616625 0.000000
0.525429 0.616063 0.000000
0.556856 0.615502 0.000000
0.611987 0.643997 0.000000
0.666179 0.672003 0.000000
0.700008 0.679646 0.000000
0.728014 0.681465 0.000000
0.756020 0.683284 0.000000
0.784025 0.685103 0.000000
0.812031 0.686922 0.000000
0.840037 0.688741 0.000000
0.868042 0.690560 0.000000
0.896048 0.692379 0.000000
0.000000 0.653823 0.000000
0.000000 0.653323 0.000000
0.000000 0.652822 0.000000
0.000000 0.652322 0.000000
0.000000 0.651821 0.000000
0.018358 0.651321 0.000000
0.049780 0.650821 0.000000
0.081202 0.650320 0.000000
0.112624 0.649820 0.000000
0.144046 0.649319 0.000000
0.175468 0.648819 0.000000
0.206891 0.648319 0.000000
0.238313 0.647818 0.000000
0.269735 0.647318 0.000000
0.301157 0.646817 0.000000
0.332579 0.646317 0.000000
0.364001 0.645817 0.000000
0.395423 0.645316 0.000000
0.426845 0.644816 0.000000
0.458267 0.644315 0.000000
0.489689 0.643815 0.000000
0.521111 0.643315 0.000000
0.552533 0.642814 0.000000
0.581229 0.642314 0.000000
0.635360 0.670319 0.000000
0.689491 0.698325 0.000000
0.726331 0.709039 0.000000
0.754336 0.710919 0.000000
0.782342 0.712799 0.000000
0.810348 0.714679 0.000000
0.838353 0.716560 0.000000
0.866359 0.718440 0.000000
0.894365 0.720320 0.000000
0.000000 0.680646 0.000000
0.000000 0.680145 0.000000
0.000000 0.679645 0.000000
0.000000 0.679144 0.000000
0.000000 0.678644 0.000000
0.014076 0.678144 0.000000
0.045499 0.677643 0.000000
0.076921 0.677143 0.000000
0.108343 0.676642 0.000000
0.139765 0.676142 0.000000
0.171187 0.675642 0.000000
0.202609 0.675141 0.000000
0.234031 0.674641 0.000000
0.265453 0.674140 0.000000
0.296875 0.673640 0.000000
0.328297 0.673140 0.000000
0.359719 0.672639 0.000000
0.391141 0.672139 0.000000
0.422563 0.671638 0.000000
0.453985 0.671138 0.000000
0.485407 0.670638 0.000000
0.516830 0.670137 0.000000
0.548252 0.669637 0.000000
0.577153 0.669136 0.000000
0.605154 0.668636 0.000000
0.659285 0.696642 0.000000
0.713416 0.724647 0.000000
0.752653 0.737759 0.000000
0.780659 0.739639 0.000000
0.808664 0.741519 0.000000
0.836670 0.743399 0.000000
0.864676 0.745280 0.000000
0.892681 0.747160 0.000000
0.000000 0.707468 0.000000
0.000000 0.706968 0.000000
0.000000 0.706467 0.000000
0.000000 0.705967 0.000000
0.000000 0.705467 0.000000
0.009795 0.704966 0.000000
0.041217 0.704466 0.000000
0.072639 0.703965 0.000000
0.104061 0.703465 0.000000
0.135483 0.702965 0.000000
0.166905 0.702464 0.000000
0.198327 0.701964 0.000000
0.229749 0.701463 0.000000
0.261171 0.700963 0.000000
0.292593 0.700463 0.000000
0.324015 0.699962 0.000000
0.355438 0.699462 0.000000
0.386860 0.698961 0.000000
0.418282 0.698461 0.000000
0.449704 0.697961 0.000000
0.481126 0.697460 0.000000
0.512548 0.696960 0.000000
0.543970 0.696459 0.000000
0.573077 0.695959 0.000000
0.601078 0.695459 0.000000
0.629078 0.694958 0.000000
0.683209 0.722964 0.000000
0.737341 0.750970 0.000000
0.778975 0.766479 0.000000
0.806981 0.768359 0.000000
0.834987 0.770239 0.000000
0.862992 0.772119 0.000000
0.890998 0.774000 0.000000
0.000000 0.734291 0.000000
0.000000 0.733791 0.000000
0.000000 0.733290 0.000000
0.000000 0.732790 0.000000
0.000000 0.732289 0.000000
0.005513 0.731789 0.000000
0.036935 0.731289 0.000000
0.068357 0.730788 0.000000
0.099779 0.730288 0.000000
0.131201 0.729787 0.000000
0.162623 0.729287 0.000000
0.194046 0.728787 0.000000
0.225468 0.728286 0.000000
0.256890 0.727786 0.000000
0.288312 0.727285 0.000000
0.319734 0.726785 0.000000
0.351156 0.726285 0.000000
0.382578 0.725784 0.000000
0.414000 0.725284 0.000000
0.445422 0.724783 0.000000
0.476844 0.724283 0.000000
0.508266 0.723783 0.000000
0.539688 0.723282 0.000000
0.569001 0.722782 0.000000
0.597002 0.722281 0.000000
0.625002 0.721781 0.000000
0.653003 0.721281 0.000000
0.707134 0.749286 0.000000
