backend/scripts/moody.cube
LUT_3D_SIZE 9
DOMAIN_MIN 0.0 0.0 0.0
DOMAIN_MAX 1.0 1.0 1.0
0.000000 0.000000 0.000000
0.091372 0.000000 0.000000
0.217080 0.000000 0.000000
0.342789 0.000000 0.000000
0.468498 0.000000 0.000000
0.594206 0.007747 0.000000
0.709037 0.015257 0.000000
0.821060 0.022533 0.000000
0.933082 0.029810 0.000000
0.000000 0.086062 0.000000
0.073153 0.083815 0.000000
0.209524 0.102895 0.000000
0.335233 0.111312 0.000000
0.460941 0.119729 0.000000
0.586650 0.128145 0.000000
0.702303 0.135724 0.000000
0.814326 0.143000 0.000000
0.926349 0.150277 0.000000
0.000000 0.206460 0.000000
0.054934 0.204214 0.000000
0.180642 0.201968 0.000000
0.327677 0.231711 0.000000
0.453385 0.240127 0.000000
0.579094 0.248544 0.000000
0.695570 0.256191 0.000000
0.807593 0.263468 0.000000
0.919615 0.270744 0.000000
0.000000 0.326859 0.000000
0.036714 0.324613 0.000000
0.162423 0.322367 0.000000
0.288132 0.320120 0.000000
0.445829 0.360526 0.000000
0.571538 0.368943 0.000000
0.688836 0.376659 0.000000
0.800859 0.383935 0.000000
0.912882 0.391211 0.000000
0.000000 0.447257 0.000000
0.018495 0.445011 0.000000
0.144204 0.442765 0.000000
0.269913 0.440519 0.000000
0.395621 0.438273 0.000000
0.563982 0.489341 0.000000
0.682103 0.497126 0.000000
0.794126 0.504402 0.000000
0.906148 0.511678 0.000000
0.000000 0.567656 0.000000
0.000276 0.565410 0.000000
0.125985 0.563164 0.000000
0.251694 0.560918 0.000000
0.377402 0.558672 0.000000
0.503111 0.556425 0.000000
0.675370 0.617593 0.000000
0.787392 0.624869 0.000000
0.899415 0.632146 0.000000
0.000000 0.680646 0.000000
0.000000 0.678644 0.000000
0.108343 0.676642 0.000000
0.234031 0.674641 0.000000
0.359719 0.672639 0.000000
0.485407 0.670638 0.000000
0.605154 0.668636 0.000000
0.780659 0.739639 0.000000
0.892681 0.747160 0.000000
0.000000 0.787936 0.000000
0.000000 0.785935 0.000000
0.091216 0.783933 0.000000
0.216904 0.781932 0.000000
0.342592 0.779930 0.000000
0.468281 0.777928 0.000000
0.588850 0.775927 0.000000
0.700852 0.773925 0.000000
0.885948 0.854519 0.000000
0.000000 0.895227 0.000000
0.000000 0.893225 0.000000
0.074089 0.891224 0.000000
0.199778 0.889222 0.000000
0.325466 0.887221 0.000000
0.451154 0.885219 0.000000
0.572546 0.883217 0.000000
0.684548 0.881216 0.000000
0.796550 0.879214 0.000000
0.000000 0.000000 0.092855
0.090609 0.000000 0.079946
0.216317 0.000000 0.067037
0.342026 0.000000 0.054128
0.467735 0.000000 0.041219
0.593443 0.000000 0.028310
0.708357 0.000000 0.016300
0.820380 0.000000 0.004532
0.932402 0.000000 0.000000
0.000000 0.074636 0.085299
0.083053 0.083053 0.083053
0.208761 0.091469 0.080807
0.334470 0.099886 0.078560
0.460179 0.108303 0.076314
0.585887 0.116720 0.074068
0.701624 0.124305 0.071822
0.813646 0.131582 0.069576
0.925669 0.138858 0.067330
0.000000 0.205697 0.099068
0.075497 0.203451 0.086159
0.190542 0.201205 0.073250
0.326914 0.220285 0.071004
0.452622 0.228702 0.068758
0.578331 0.237118 0.066512
0.694890 0.244773 0.064266
0.806913 0.252049 0.062020
0.918935 0.259325 0.059774
0.000000 0.326096 0.102175
0.067940 0.323850 0.089266
0.172323 0.321604 0.065694
0.298032 0.319358 0.063448
0.445066 0.349100 0.061202
0.570775 0.357517 0.058956
0.688157 0.365240 0.056710
0.800179 0.372516 0.054464
0.912202 0.379792 0.052217
0.000000 0.446495 0.105282
0.060384 0.444249 0.092373
0.154104 0.442002 0.058138
0.279813 0.439756 0.055892
0.405521 0.437510 0.053646
0.563219 0.477916 0.051400
0.681423 0.485707 0.049154
0.793446 0.492983 0.046907
0.905468 0.500260 0.044661
0.000000 0.566893 0.108389
0.052828 0.564647 0.095480
0.135885 0.562401 0.050582
0.261594 0.560155 0.048336
0.387302 0.557909 0.046090
0.513011 0.555663 0.043844
0.674690 0.606174 0.041597
0.786712 0.613450 0.039351
0.898735 0.620727 0.037105
0.000000 0.679966 0.110885
0.045272 0.677964 0.097996
0.118236 0.675963 0.043026
0.243924 0.673961 0.040780
0.369612 0.671959 0.038534
0.495301 0.669958 0.036287
0.615130 0.667956 0.034041
0.779979 0.728303 0.031795
0.892002 0.735824 0.029549
0.000000 0.787257 0.112899
0.037716 0.785255 0.100011
0.101109 0.783253 0.035470
0.226797 0.781252 0.033224
0.352486 0.779250 0.030977
0.478174 0.777249 0.028731
0.598826 0.775247 0.026485
0.710828 0.773245 0.024239
0.885268 0.843183 0.021993
0.000000 0.894547 0.114914
0.030160 0.892546 0.102025
0.083982 0.890544 0.027914
0.209671 0.888542 0.025667
0.335359 0.886541 0.023421
0.461047 0.884539 0.021175
0.582522 0.882538 0.018929
0.694524 0.880536 0.016683
0.806526 0.878535 0.014437
0.000000 0.000000 0.220047
0.111172 0.000000 0.217801
0.215555 0.000000 0.194229
0.341263 0.000000 0.181320
0.466972 0.000000 0.168411
0.592681 0.000000 0.155502
0.707677 0.000000 0.143485
0.819700 0.000000 0.131717
0.931723 0.000000 0.119948
0.000000 0.063210 0.212491
0.092953 0.082290 0.210245
0.207998 0.080044 0.197336
0.333707 0.077798 0.184427
0.459416 0.075551 0.171518
0.585124 0.073305 0.158608
0.700944 0.071059 0.146524
0.812967 0.068813 0.134755
0.924989 0.066567 0.122986
0.000000 0.183609 0.204935
0.074734 0.192026 0.202688
0.200442 0.200442 0.200442
0.326151 0.208859 0.198196
0.451860 0.217276 0.195950
0.577568 0.225693 0.193704
0.694210 0.233354 0.191458
0.806233 0.240630 0.189212
0.918256 0.247906 0.186966
0.000000 0.325333 0.229367
0.067178 0.323087 0.216458
0.192886 0.320841 0.203549
0.307932 0.318595 0.190640
0.444304 0.337675 0.188394
0.570012 0.346091 0.186148
0.687477 0.353821 0.183902
0.799500 0.361097 0.181656
0.911522 0.368374 0.179409
0.000000 0.445732 0.232474
0.059621 0.443486 0.219565
0.185330 0.441240 0.206656
0.289713 0.438993 0.183084
0.415422 0.436747 0.180838
0.562456 0.466490 0.178592
0.680743 0.474288 0.176346
0.792766 0.481565 0.174099
0.904789 0.488841 0.171853
0.000000 0.566131 0.235581
0.052065 0.563884 0.222672
0.177774 0.561638 0.209763
0.271494 0.559392 0.175528
0.397203 0.557146 0.173282
0.522911 0.554900 0.171036
0.674010 0.594755 0.168789
0.786033 0.602032 0.166543
0.898055 0.609308 0.164297
0.000000 0.679286 0.238084
0.044509 0.677284 0.225195
0.170218 0.675283 0.212307
0.253817 0.673281 0.167972
0.379506 0.671280 0.165726
0.505194 0.669278 0.163479
0.625106 0.667277 0.161233
0.779299 0.716968 0.158987
0.891322 0.724488 0.156741
0.000000 0.786577 0.240098
0.036953 0.784575 0.227210
0.162662 0.782574 0.214321
0.236691 0.780572 0.160416
0.362379 0.778570 0.158169
0.488067 0.776569 0.155923
0.608802 0.774567 0.153677
0.720804 0.772566 0.151431
0.884588 0.831848 0.149185
0.000000 0.893868 0.242113
0.029397 0.891866 0.229224
0.155106 0.889864 0.216335
0.219564 0.887863 0.152859
0.345252 0.885861 0.150613
0.470940 0.883860 0.148367
0.592498 0.881858 0.146121
0.704500 0.879856 0.143875
0.816503 0.877855 0.141629
0.000000 0.000000 0.347239
0.121072 0.000000 0.344993
0.246781 0.000000 0.342747
0.340500 0.000000 0.308512
0.466209 0.000000 0.295603
0.591918 0.000000 0.282694
0.706998 0.000000 0.270670
0.819020 0.000000 0.258902
0.931043 0.000000 0.247133
0.000000 0.051784 0.339683
0.102853 0.081527 0.337437
0.228561 0.079281 0.335190
0.332944 0.077035 0.311619
0.458653 0.074789 0.298710
0.584362 0.072543 0.285800
0.700264 0.070296 0.273709
0.812287 0.068050 0.261940
0.924309 0.065804 0.250172
0.000000 0.172183 0.332127
0.073971 0.180600 0.329880
0.210342 0.199680 0.327634
0.325388 0.197433 0.314725
0.451097 0.195187 0.301816
0.576805 0.192941 0.288907
0.693531 0.190695 0.276747
0.805553 0.188449 0.264978
0.917576 0.186203 0.253210
0.000000 0.292582 0.324570
0.066415 0.300999 0.322324
0.192123 0.309415 0.320078
0.317832 0.317832 0.317832
0.443541 0.326249 0.315586
0.569249 0.334666 0.313340
0.686797 0.342402 0.311094
0.798820 0.349679 0.308848
0.910842 0.356955 0.306601
0.000000 0.444969 0.359666
0.058859 0.442723 0.346757
0.184567 0.440477 0.333848
0.310276 0.438231 0.320939
0.425322 0.435985 0.308030
0.561693 0.455064 0.305784
0.680064 0.462869 0.303538
0.792086 0.470146 0.301291
0.904109 0.477422 0.299045
0.000000 0.565368 0.362773
0.051302 0.563122 0.349864
0.177011 0.560875 0.336955
0.302720 0.558629 0.324046
0.407103 0.556383 0.300474
0.532811 0.554137 0.298228
0.673330 0.583337 0.295981
0.785353 0.590613 0.293735
0.897375 0.597889 0.291489
0.000000 0.678606 0.365283
0.043746 0.676605 0.352394
0.169455 0.674603 0.339505
0.295164 0.672602 0.326617
0.389399 0.670600 0.292918
0.515087 0.668598 0.290671
0.635082 0.666597 0.288425
0.778619 0.705632 0.286179
0.890642 0.713153 0.283933
0.000000 0.785897 0.367297
0.036190 0.783895 0.354409
0.161899 0.781894 0.341520
0.287607 0.779892 0.328631
0.372272 0.777891 0.285361
0.497960 0.775889 0.283115
0.618778 0.773887 0.280869
0.730781 0.771886 0.278623
0.883909 0.820512 0.276377
0.000000 0.893188 0.369312
0.028634 0.891186 0.356423
0.154343 0.889185 0.343534
0.280051 0.887183 0.330646
0.355145 0.885181 0.277805
0.480834 0.883180 0.275559
0.602474 0.881178 0.273313
0.714477 0.879177 0.271067
0.826479 0.877175 0.268821
0.005263 0.000000 0.474431
0.130972 0.000000 0.472185
0.256681 0.000000 0.469939
0.382389 0.000000 0.467692
0.465446 0.000000 0.422795
0.591155 0.000000 0.409886
0.706318 0.000000 0.397855
0.818341 0.000000 0.386087
0.930363 0.000000 0.374318
0.000000 0.040359 0.466875
0.112753 0.080764 0.464629
0.238462 0.078518 0.462382
0.364170 0.076272 0.460136
0.457890 0.074026 0.425901
0.583599 0.071780 0.412992
0.699584 0.069534 0.400894
0.811607 0.067287 0.389125
0.923630 0.065041 0.377357
0.000000 0.160757 0.459319
0.073208 0.169174 0.457072
0.220243 0.198917 0.454826
0.345951 0.196671 0.452580
0.450334 0.194424 0.429008
0.576043 0.192178 0.416099
0.692851 0.189932 0.403932
0.804874 0.187686 0.392163
0.916896 0.185440 0.380395
0.000000 0.281156 0.451762
0.065652 0.289573 0.449516
0.191361 0.297990 0.447270
0.327732 0.317069 0.445024
0.442778 0.314823 0.432115
0.568487 0.312577 0.419206
0.686117 0.310331 0.406970
0.798140 0.308085 0.395202
0.910163 0.305839 0.383433
0.000000 0.401555 0.444206
0.058096 0.409971 0.441960
0.183804 0.418388 0.439714
0.309513 0.426805 0.437468
0.435222 0.435222 0.435222
0.560930 0.443639 0.432976
0.679384 0.451451 0.430729
0.791407 0.458727 0.428483
0.903429 0.466003 0.426237
0.000000 0.564605 0.489965
0.050540 0.562359 0.477056
0.176248 0.560113 0.464147
0.301957 0.557867 0.451238
0.427666 0.555620 0.438329
0.542711 0.553374 0.425419
0.672650 0.571918 0.423173
0.784673 0.579194 0.420927
0.896696 0.586470 0.418681
0.000000 0.677927 0.492482
0.042984 0.675925 0.479593
0.168692 0.673923 0.466704
0.294401 0.671922 0.453816
0.420109 0.669920 0.440927
0.524980 0.667919 0.417863
0.645059 0.665917 0.415617
0.777940 0.694296 0.413371
0.889962 0.701817 0.411125
0.000000 0.785217 0.494496
0.035427 0.783216 0.481607
0.161136 0.781214 0.468719
0.286845 0.779213 0.455830
0.412553 0.777211 0.442941
0.507853 0.775209 0.410307
0.628755 0.773208 0.408061
0.740757 0.771206 0.405815
0.883229 0.809176 0.403569
0.000000 0.892508 0.496511
0.027871 0.890506 0.483622
0.153580 0.888505 0.470733
0.279289 0.886503 0.457845
0.404997 0.884502 0.444956
0.490727 0.882500 0.402751
0.612451 0.880498 0.400505
0.724453 0.878497 0.398259
0.836455 0.876495 0.396013
0.015163 0.000000 0.601623
0.140872 0.000000 0.599377
0.266581 0.000000 0.597131
0.392289 0.000000 0.594884
0.517998 0.000000 0.592638
0.590392 0.000000 0.537078
0.705638 0.000000 0.525041
0.817661 0.000000 0.513272
0.929683 0.000000 0.501503
0.000000 0.028933 0.594067
0.122653 0.080001 0.591821
0.248362 0.077755 0.589574
0.374070 0.075509 0.587328
0.499779 0.073263 0.585082
0.582836 0.071017 0.540184
0.698905 0.068771 0.528079
0.810927 0.066525 0.516310
0.922950 0.064279 0.504542
0.000000 0.149332 0.586511
0.072445 0.157748 0.584264
0.230143 0.198154 0.582018
0.355851 0.195908 0.579772
0.481560 0.193662 0.577526
0.575280 0.191416 0.543291
0.692171 0.189169 0.531117
0.804194 0.186923 0.519348
0.916216 0.184677 0.507580
0.000000 0.269730 0.578954
0.064889 0.278147 0.576708
0.190598 0.286564 0.574462
0.337632 0.316306 0.572216
0.463341 0.314060 0.569970
0.567724 0.311814 0.546398
0.685438 0.309568 0.534155
0.797460 0.307322 0.522387
0.909483 0.305076 0.510618
0.000000 0.390129 0.571398
0.057333 0.398546 0.569152
0.183042 0.406963 0.566906
0.308750 0.415379 0.564660
0.445122 0.434459 0.562414
0.560168 0.432213 0.549505
0.678704 0.429967 0.537193
0.790727 0.427721 0.525425
0.902749 0.425474 0.513656
0.000000 0.510528 0.563842
0.049777 0.518944 0.561596
0.175486 0.527361 0.559350
0.301194 0.535778 0.557104
0.426903 0.544195 0.554858
0.552611 0.552611 0.552611
0.671971 0.560499 0.550365
0.783993 0.567775 0.548119
0.896016 0.575052 0.545873
0.000000 0.677247 0.619681
0.042221 0.675245 0.606792
0.167929 0.673244 0.593903
0.293638 0.671242 0.581015
0.419347 0.669240 0.568126
0.545055 0.667239 0.555237
0.655035 0.665237 0.542809
0.777260 0.682960 0.540563
0.889282 0.690481 0.538317
0.000000 0.784538 0.621695
0.034665 0.782536 0.608806
0.160373 0.780534 0.595918
0.286082 0.778533 0.583029
0.411791 0.776531 0.570140
0.537499 0.774530 0.557252
0.638731 0.772528 0.535253
0.750733 0.770526 0.533007
0.882549 0.797840 0.530761
0.000000 0.891828 0.623709
0.027108 0.889827 0.610821
0.152817 0.887825 0.597932
0.278526 0.885823 0.585043
0.404234 0.883822 0.572155
0.529943 0.881820 0.559266
0.622427 0.879819 0.527697
0.734429 0.877817 0.525451
0.846431 0.875816 0.523205
0.024076 0.000000 0.716968
0.149805 0.000000 0.714966
0.275534 0.000000 0.712965
0.401263 0.000000 0.710963
0.526992 0.000000 0.708962
0.652721 0.000000 0.706960
0.704958 0.000000 0.641846
0.816981 0.000000 0.630322
0.929004 0.000000 0.618798
0.000000 0.018426 0.710235
0.131655 0.079239 0.708233
0.257384 0.076993 0.706231
0.383113 0.074746 0.704230
0.508842 0.072500 0.702228
0.634571 0.070254 0.700227
0.698225 0.068008 0.645707
0.810248 0.065762 0.634183
0.922270 0.063516 0.622659
0.000000 0.138756 0.703501
0.071683 0.147153 0.701499
0.239233 0.197391 0.699498
0.364962 0.195145 0.697496
0.490691 0.192899 0.695495
0.616420 0.190653 0.693493
0.691491 0.188407 0.649568
0.803514 0.186160 0.638044
0.915537 0.183914 0.626520
0.000000 0.259086 0.696768
0.064126 0.267483 0.694766
0.189835 0.275879 0.692764
0.346812 0.315544 0.690763
0.472541 0.313298 0.688761
0.598270 0.311051 0.686760
0.684758 0.308805 0.653429
0.796781 0.306559 0.641905
0.908803 0.304313 0.630381
0.000000 0.379416 0.690034
0.056570 0.387813 0.688032
0.182279 0.396209 0.686031
0.307988 0.404605 0.684029
0.454390 0.433696 0.682028
0.580119 0.431450 0.680026
0.678024 0.429204 0.657289
0.790047 0.426958 0.645765
0.902070 0.424712 0.634241
0.000000 0.499746 0.683301
0.049014 0.508143 0.681299
0.174723 0.516539 0.679297
0.300431 0.524936 0.677296
0.426140 0.533332 0.675294
0.561969 0.551849 0.673293
0.671291 0.549603 0.661150
0.783314 0.547356 0.649626
0.895336 0.545110 0.638102
0.000000 0.613166 0.676567
0.041458 0.621807 0.674565
0.167167 0.630447 0.672564
0.292875 0.639088 0.670562
0.418584 0.647729 0.668561
0.544293 0.656370 0.666559
0.664557 0.664557 0.664557
0.776580 0.672058 0.662556
0.888603 0.679558 0.660554
0.000000 0.783858 0.742806
0.033902 0.781856 0.730162
0.159610 0.779855 0.717517
0.285319 0.777853 0.704873
0.411028 0.775851 0.692229
0.536736 0.773850 0.679585
0.657824 0.771848 0.667326
0.760345 0.769847 0.655822
0.881869 0.786849 0.653821
0.000000 0.891149 0.745643
0.026346 0.889147 0.732999
0.152054 0.887145 0.720354
0.277763 0.885144 0.707710
0.403472 0.883142 0.695066
0.529180 0.881141 0.682422
0.651091 0.879139 0.670095
0.744109 0.877137 0.649089
0.856132 0.875136 0.647087
0.032822 0.000000 0.830313
0.158551 0.000000 0.828311
0.284280 0.000000 0.826309
0.410010 0.000000 0.824308
0.535739 0.000000 0.822306
0.661468 0.000000 0.820305
0.776900 0.000000 0.818303
0.816301 0.000000 0.743660
0.928324 0.000000 0.732136
0.000000 0.008154 0.823579
0.140401 0.078476 0.821577
0.266130 0.076230 0.819576
0.391859 0.073984 0.817574
0.517588 0.071737 0.815573
0.643317 0.069491 0.813571
0.759572 0.067245 0.811569
0.809568 0.064999 0.747520
0.921590 0.062753 0.735996
0.000000 0.128484 0.816846
0.070920 0.136881 0.814844
0.247980 0.196628 0.812842
0.373709 0.194382 0.810841
0.499438 0.192136 0.808839
0.625167 0.189890 0.806838
0.742244 0.187644 0.804836
0.802834 0.185398 0.751381
0.914857 0.183152 0.739857
0.000000 0.248815 0.810112
0.063364 0.257211 0.808110
0.189072 0.265607 0.806109
0.355558 0.314781 0.804107
0.481287 0.312535 0.802106
0.607016 0.310289 0.800104
0.724917 0.308042 0.798102
0.796101 0.305796 0.755242
0.908123 0.303550 0.743718
0.000000 0.369145 0.803379
0.055807 0.377541 0.801377
0.181516 0.385937 0.799375
0.307225 0.394334 0.797374
0.463137 0.432933 0.795372
0.588866 0.430687 0.793371
0.707589 0.428441 0.791369
0.789367 0.426195 0.759103
0.901390 0.423949 0.747579
0.000000 0.489475 0.796645
0.048251 0.497871 0.794643
0.173960 0.506267 0.792642
0.299669 0.514664 0.790640
0.425377 0.523060 0.788639
0.570715 0.551086 0.786637
0.690261 0.548840 0.784635
0.782634 0.546594 0.762964
0.894656 0.544347 0.751440
0.000000 0.602977 0.789912
0.040695 0.611618 0.787910
0.166404 0.620259 0.785908
0.292112 0.628900 0.783907
0.417821 0.637541 0.781905
0.543530 0.646182 0.779904
0.673380 0.663878 0.777902
0.775900 0.661876 0.766398
0.887923 0.659875 0.754895
0.000000 0.710199 0.783178
0.033139 0.718840 0.781176
0.158848 0.727481 0.779175
0.284556 0.736122 0.777173
0.410265 0.744763 0.775172
0.535974 0.753404 0.773170
0.657144 0.761666 0.771168
0.769167 0.769167 0.769167
0.881189 0.776667 0.767165
0.000000 0.890469 0.858994
0.025583 0.888467 0.846350
0.151292 0.886466 0.833706
0.277000 0.884464 0.821062
0.402709 0.882462 0.808418
0.528417 0.880461 0.795774
0.650411 0.878459 0.783439
0.762433 0.876458 0.771935
0.864954 0.874456 0.760432
0.041569 0.000000 0.943657
0.167298 0.000000 0.941655
0.293027 0.000000 0.939654
0.418756 0.000000 0.937652
0.544485 0.000000 0.935651
0.670214 0.000000 0.933649
0.785729 0.000000 0.931647
0.897772 0.000000 0.929646
0.927644 0.000000 0.845473
0.000000 0.000000 0.936923
0.149147 0.077713 0.934922
0.274876 0.075467 0.932920
0.400605 0.073221 0.930919
0.526334 0.070975 0.928917
0.652063 0.068729 0.926916
0.768401 0.066482 0.924914
0.880444 0.064236 0.922912
0.920911 0.061990 0.849334
0.000000 0.118213 0.930190
0.070157 0.126609 0.928188
0.256726 0.195866 0.926187
0.382455 0.193619 0.924185
0.508184 0.191373 0.922184
0.633913 0.189127 0.920182
0.751074 0.186881 0.918180
0.863117 0.184635 0.916179
0.914177 0.182389 0.853195
0.000000 0.238543 0.923456
0.062601 0.246939 0.921455
0.188309 0.255336 0.919453
0.364304 0.314018 0.917452
0.490033 0.311772 0.915450
0.615762 0.309526 0.913449
0.733746 0.307280 0.911447
0.845789 0.305034 0.909445
0.907444 0.302787 0.857056
0.000000 0.358873 0.916723
0.055045 0.367269 0.914721
0.180753 0.375666 0.912720
0.306462 0.384062 0.910718
0.471883 0.432171 0.908717
0.597612 0.429924 0.906715
0.716418 0.427678 0.904713
0.828461 0.425432 0.902712
0.900710 0.423186 0.860917
0.000000 0.479203 0.909990
0.047488 0.487599 0.907988
0.173197 0.495996 0.905986
0.298906 0.504392 0.903985
0.424614 0.512788 0.901983
0.579461 0.550323 0.899982
0.699090 0.548077 0.897980
0.811133 0.545831 0.895978
0.893977 0.543585 0.864777
0.000000 0.592788 0.903256
0.039932 0.601429 0.901254
0.165641 0.610070 0.899253
0.291350 0.618711 0.897251
0.417058 0.627352 0.895250
0.542767 0.635993 0.893248
0.682202 0.663198 0.891246
0.794225 0.661196 0.889245
0.887243 0.659195 0.868239
0.000000 0.700010 0.896523
0.032376 0.708651 0.894521
0.158085 0.717292 0.892519
0.283794 0.725933 0.890518
0.409502 0.734574 0.888516
0.535211 0.743215 0.886515
0.656465 0.751485 0.884513
0.777989 0.768487 0.882511
0.880510 0.766486 0.871008
0.000000 0.807233 0.889789
0.024820 0.815873 0.887787
0.150529 0.824514 0.885786
0.276237 0.833155 0.883784
0.401946 0.841796 0.881783
0.527655 0.850437 0.879781
0.649731 0.858775 0.877779
0.761754 0.866276 0.875778
0.873776 0.873776 0.873776
